X:1
T:Title
%%score 1 ( 2 3 )
L:1/8
Q:1/4=100
M:4/4
K:C
V:1 treble nm="Grand Piano, Soprano"
V:2 bass nm="Choir Pad, Ring Out, Ring Out, O Christmas"
V:3 bass 
V:1
 [EG]2 [EG]2- [EG][EG] [Ec]2- | [Ec][Ec][Bd][Ac] [GB][FA] [EG]2- | %2
w: By~Charles~F.~Roper * * * *||
 [EG][EA] [FG]2- [FG][FA] [EG]2- | [EG][EA] [FG]2- [FG][FA] [EG]2- | %4
w: ||
 [EG][EG] [Ec]2- [Ec][DB] [DA]2 | [DA]2 [Dd]2- [Dd][DB] [^CG]2 | [^CA]2 [DB]2 [Ec]2 [DB]2 | %7
w: |||
 [CA]2 [CA]2- [CA][B,G] [B,G]2- | [B,G][B,G] [FG]2- [FG][FA] [EG]2- | %9
w: ||
 [EG][EA][B,G][DB] [Ec][Fd] [Ge]2- | [Ge][Ge][Bd][Ac] [GB][FA] [EG]2- | %11
w: ||
 [EG][EA] [FG]2- [FG][FA] [CE]2 | z2 [Ec]2 [Ec][DB] [CA]2 | [CA]2 [Fd]2- [Fd][Ec] [DB]2- | %14
w: |||
 [DB][FB] [Ec]2 [_Ec]2 [=Ec]2- | [Ec][EG] [FA]2 [FB]2 [Ec]2- | [Ec]6 z2 |] %17
w: |||
V:2
 [C,G,]2 [C,G,]2- [C,G,][C,C] [C,G,]2- | [C,G,][C,G,]F,G, A,B, [C,C]2- | %2
 [C,C][C,C]B,-[D,B,-] B,/ z/ B, C-[E,C-] | CCB,-[D,B,-] B,/ z/ B, [C,C]2- | %4
 [C,C][C,G,] [A,,A,]2- [A,,A,][A,,A,] [D,^F,]2 | [C,^F,]2 [B,,G,]2- [B,,G,][B,,G,] [E,A,]2 | %6
 [E,G,]2 [D,G,]2 [D,E,]2 [D,^F,]2 | [D,^F,]2 [D,F,]2- [D,F,][G,,G,] [G,,G,]2- | %8
 [G,,G,][G,,G,]B,-[D,B,-] B,/ z/ B, C-[E,C-] | CC [G,,G,]2 [G,,G,]2 [C,G,]2- | %10
 [C,G,][C,G,]C,-[C,G,] A,B, [C,C]2- | [C,C][C,C]B,-[D,B,-] B,/ z/ B, [C,C]2 | %12
 z2 [A,,A,]2 [A,,A,][A,,A,] [F,A,]2 | [F,A,]2 [D,F,]2- [D,F,][D,F,] G,2- | %14
 G,[G,D] [A,C]2 [^F,A,]2 G,2- | G,[G,C] [G,C]2 [G,D]2 [C,C]2- | [C,C]6 z2 |] %17
V:3
 x8 | z2 C,2 C,2 z2 | z2 .F,2 G,,2 .C,2 | G,2 .F,2 G,,2 z2 | x8 | x8 | x8 | x8 | %8
 z2 .F,2 G,,2 .C,2 | G,2 z2 z4 | z2 .F,2 C,2 z2 | z2 .G,2 G,,2 z2 | x8 | x8 | x8 | x8 | x8 |] %17

